X:1
T:James Gibb editions
T:Il felice - Gastoldi
%%score [ 1 2 3 ]
L:1/8
Q:1/4=100
M:2/2
K:G
V:1 treble nm="Soprano" snm="S"
V:2 treble nm="Alto" snm="A"
V:3 bass nm="Bass" snm="B"
V:1
"^Il felice""^Giovanni Gastoldi\n(1560-1609)" A2 B2 A2 G2 | F4 D4 | G2 G2 G2 A2 | B4 G4 | %4
w: Per vo- ler d'a-|mo- re|Go- do~~a tut- te|l'o- re|
w: ||||
w: Per mia bo- na|sor- te|Di due lu- ci~~ac-|cor- te.|
 c2 c2 c2 B2 | (AGAB A2) A2 |[M:2/2] G2 F2 E2 E2 |1 F8 :|2 F4 z2 A2 || B2 A2 G2 F2 | E2 c2 B2 A2 | %11
w: Del mio ca- ro|ben * * * * Che|per mio~~a- mor vien|men|men Ben|pos- so be- ne-|dir Il dì ch'a-|
w: |||||||
w: Vuoi ch'io go- da~~a-|mor * * * * La|lu- ce~~e lo splen-|dor.|dor. O|be- ne- det- to~~ar-|cier Per te go-|
 ^G2 A2 A2 G2 | A4 z2 c2 | B2 A2 B2 ^c2 | d4 B4 | c2 B2 A2 A2 | B4 |: z2 d2 | d2 c2 B2 B2 | %19
w: mor tol- si~~a ser-|vir. Ne|mai vo- glio res-|tar Di|lui non se- gui-|tal|||
w: ||||||E|vò can- tar o-|
w: do o- gni pie-|cer, E|se- gua ciò che|vuol Con|te vò vi- ver|sol.|||
 A2 A2 B2 A2 | G2 F2 E2 E2 | F4 :| %22
w: |||
w: gnor Vi- va l'a-|mor, vi- va l'a-|mor.|
w: |||
V:2
 F2 F2 F2 G2 | A4 F4 | B2 c2 B2 A2 | G4 E4 | E2 E2 E2 G2 | (FEFG F2) F2 |[M:2/2] E2 D2 D2 ^C2 |1 %7
w: Per vo- ler d'a-|mo- re|Go- do~~a tut- te|l'o- re|Del mio ca- ro|ben * * * * Che|per mio~~a- mor vien|
w: |||||||
w: Per mia bo- na|sor- te|Di due lu- ci~~ac-|cor- te.|Vuoi ch'io go- da~~a-|mor * * * * La|lu- ce~~e lo splen-|
 D8 :|2 D4 z2 F2 || G2 F2 E2 ^D2 | E2 A2 ^G2 A2 | B2 c2 B2 B2 | A4 z2 E2 | E2 F2 G2 E2 | F4 G4 | %15
w: men|men Ben|pos- so be- ne-|dir Il dì ch'a-|moi- tol- si~~a ser-|vir. Ne|mai vo- glio res-|tar Di|
w: ||||||||
w: dor.|dor. O|be- ne- det- to~~ar-|cier Per te go-|do o- gni pie-|cer, E|se- gua ciò che|vuol Con|
 E2 G2 G2 F2 | G4 |: z2 B2 | B2 A2 A2 ^G2 | A2 F2 !courtesy!=G2 F2 | E2 D2 D2 ^C2 | D4 :| %22
w: lui non se- gui-|tar||||||
w: ||E|vò can- tar o-|gnor Vi- va l'a-|mor, vi- va l'a-|mor.|
w: te vò vi- ver|sol.||||||
V:3
 D,2 D,2 D,2 E,2 | D,4 D,4 | E,2 E,2 E,2 F,2 | G,4 C,4 | A,,2 A,,2 A,,2 G,,2 | D,6 D,2 | %6
w: Per vo- 1er d'a-|mo- re|Go- do~~a tut- te|l'o- re|Del mio ca- ro|ben Che|
w: ||||||
w: Per mia bo- na|sor- te|Di due lu- ci~~ac-|cor- te.|Vuoi ch'io go- da~~a-|mor La|
[M:2/2] E,2 F,2 G,2 A,2 |1 D,8 :|2 D,4 z2 D,2 || G,2 D,2 E,2 B,,2 | C,2 A,,2 E,2 =F,2 | %11
w: per mio~~a- mor vien|men|men Ben|pos- so be- ne-|dir Il dì ch'a-|
w: |||||
w: lu- ce~~e lo splen-|dor.|dor. O|be- ne- det- to~~ar-|cier Per te go-|
 E,2 C,2 D,2 E,2 | A,,4 z2 A,2 | G,2 F,2 E,2 A,2 | D,4 G,4 | C,2 A,,2 D,2 D,2 | G,,4 |: z2 G,2 | %18
w: mol tol- si~~a ser-|vir. Ne|mai vo- glio res-|tar Di|lui non se- gui-|tar||
w: ||||||E|
w: do o- gni pie-|cer, E|se- gua ciò che|vuol Con|te vò vi- ver|sol.||
 G,2 A,2 E,2 E,2 | A,,2 D,2 B,,2 D,2 | G,,2 G,,2 A,,2 A,,2 | D,4 :| %22
w: ||||
w: vò can- tar o-|gnor Vi- va l'a-|mor, vi- va l'a-|mor.|
w: ||||

